X:1
T:Pistvalsen
R:Vals
S:Efter Ola Bäckström
Z:Jürgen Gier
M:3/4
L:1/8
K:A
E2|A2 cAce|a2g2f2|feeaBc|e2 eABc|\
de f2B2|BdE2GB|BAAcE2-|EACE A,2|\
A2 cAce|a2g2f2|feeaBc|e2 eABc|\
de f2B2|BdE2GB|B2 AGAB|1A4:|2A3Ace|:\
a2g2 AB|d3c de|f2e2A2|c3B cd|\
e2d2f2|E2G2B2|BAAcE2-|EACE A,2|\
a2g2 AB|d3c de|f2e2A2|c3B cd|\
e2d2f2|E2G2B2|B2 AGAB|1A3Ace:|2A4|]

